assets/src/svg/individual/translate.svg

<svg width="20" height="20" viewBox="0 0 20 20" fill="none" xmlns="http://www.w3.org/2000/svg">
<path fill-rule="evenodd" clip-rule="evenodd" d="M10.17 12.11C9.14675 11.7589 8.16967 11.2855 7.26 10.7C8.6616 9.19461 9.63222 7.33974 10.07 5.33H12V4H7.31C7.25732 3.80863 7.19047 3.62145 7.11 3.44C6.87 2.79 6.6 2 6.6 2L5.13 2.5C5.13 2.5 5.53 3.39 5.73 4H0V5.33H2.15C2.5882 7.34799 3.57434 9.20608 5 10.7C3.45495 11.6601 1.76728 12.369 0 12.8C0.373333 13.3467 0.663333 13.8067 0.87 14.18C2.7077 13.5639 4.46127 12.7207 6.09 11.67C7.19654 12.409 8.39287 13.0038 9.65 13.44L10.17 12.11ZM18.56 18H20L15.44 6.51H13.55L9 17.98H10.38C10.5261 17.9845 10.6686 17.9346 10.78 17.84C10.8768 17.7595 10.9523 17.6565 11 17.54L12 15H17L17.93 17.57C17.9806 17.6904 18.0595 17.7967 18.16 17.88C18.2751 17.9658 18.4167 18.0083 18.56 18ZM14.89 9.5L16.47 13.69L12.54 13.7L14.12 9.51L14.31 8.95C14.3767 8.73667 14.44 8.50667 14.5 8.26C14.6068 8.68029 14.737 9.09427 14.89 9.5ZM8.54 5.33H3.63C4.01103 7.01675 4.86427 8.56021 6.09 9.78C7.36214 8.59731 8.22095 7.03743 8.54 5.33Z" fill="currentColor"/>
</svg>

<svg xmlns="http://www.w3.org/2000/svg" width="20" height="20" fill="none"><path fill="currentColor" fill-rule="evenodd" d="M10.17 12.11a13.43 13.43 0 0 1-2.91-1.41 11.46 11.46 0 0 0 2.81-5.37H12V4H7.31a4 4 0 0 0-.2-.56C6.87 2.79 6.6 2 6.6 2l-1.47.5s.4.89.6 1.5H0v1.33h2.15A11.23 11.23 0 0 0 5 10.7a17.19 17.19 0 0 1-5 2.1c.373.547.663 1.007.87 1.38a23.28 23.28 0 0 0 5.22-2.51 15.643 15.643 0 0 0 3.56 1.77l.52-1.33ZM18.56 18H20L15.44 6.51h-1.89L9 17.98h1.38a.59.59 0 0 0 .4-.14.77.77 0 0 0 .22-.3L12 15h5l.93 2.57c.05.12.13.227.23.31a.61.61 0 0 0 .4.12Zm-3.67-8.5 1.58 4.19-3.93.01 1.58-4.19.19-.56c.067-.213.13-.443.19-.69.107.42.237.834.39 1.24ZM8.54 5.33H3.63a9.11 9.11 0 0 0 2.46 4.45 8.11 8.11 0 0 0 2.45-4.45Z" clip-rule="evenodd"/></svg>
